src/assets/images/earth.svg

<svg width="404" height="404" viewBox="0 0 404 404" fill="none" xmlns="http://www.w3.org/2000/svg">
<path opacity="0.933" fill-rule="evenodd" clip-rule="evenodd" d="M195.733 0.263541C251.269 -2.35691 299.821 14.5644 341.397 51.0283C382.506 90.2792 403.374 138.578 404 195.924C402.547 261.515 377.044 315.293 327.485 357.261C277.644 396.533 221.314 411.055 158.498 400.833C106.123 390.351 64.5924 363.427 33.9059 320.061C3.50297 273.366 -6.45377 222.535 4.03653 167.561C17.2764 107.99 49.5329 62.1579 100.805 30.0647C130.139 12.637 161.781 2.70354 195.733 0.263541Z" fill="#040505"/>
<path fill-rule="evenodd" clip-rule="evenodd" d="M195.729 3.9657C224.826 2.44111 252.919 6.96267 280.018 17.5304C283.079 28.1819 285.329 39.0061 286.77 50.0034C287.253 56.7705 285.276 62.7308 280.837 67.8841C273.21 73.6351 265.297 78.9788 257.105 83.9151C255.194 85.7015 253.762 87.8254 252.809 90.2864C250.955 94.6974 249.453 99.2189 248.308 103.851C247.048 107.514 245.546 111.077 243.807 114.538C241.188 116.696 238.189 118.066 234.805 118.649C230.828 116.54 226.671 114.827 222.325 113.511C216.749 112.212 211.159 111.048 205.55 110.017C198.649 110.709 193.535 114.134 190.206 120.293C187.872 126.934 186.576 133.785 186.319 140.846C187.242 153.297 187.855 165.765 188.16 178.251C188.447 180.775 188.992 183.241 189.797 185.65C192.456 190.447 195.32 195.104 198.389 199.626C202.833 203.954 207.129 208.406 211.278 212.985C216.548 216.495 221.188 220.746 225.19 225.728C232.485 232.51 239.785 239.292 247.08 246.075C250.73 251.114 254.961 255.636 259.765 259.639C261.81 262.381 263.856 265.119 265.902 267.86C266.892 269.953 267.506 272.143 267.743 274.437C266.909 280.66 265.751 286.826 264.265 292.934C262.645 304.136 266.806 312.287 276.745 317.392C282.465 319.858 288.194 319.858 293.93 317.392C299.974 314.975 305.563 311.822 310.706 307.938C318.231 300.568 323.755 291.866 327.278 281.836C329.499 273.59 331.136 265.23 332.188 256.762C332.433 253.461 332.294 250.173 331.778 246.897C330.359 240.234 329.266 233.517 328.505 226.755C327.413 216.495 328.505 206.49 331.778 196.749C334.086 192.104 337.155 188.059 340.985 184.623C347.241 183.415 351.537 185.813 353.874 191.816C356.951 207.855 366.022 212.582 381.083 205.997C385.556 203.967 389.308 201.023 392.336 197.16C395.138 192.897 397.728 188.511 400.11 184.006C402.143 248.874 379.709 303.338 332.801 347.399C307.858 369.797 279.081 385.347 246.467 394.053C231.663 389.252 225.321 379.111 227.44 363.635C228.496 361.103 229.858 358.772 231.532 356.647C234.94 353.223 238.353 349.795 241.761 346.371C245.943 340.456 245.19 335.318 239.511 330.957C235.047 328.412 230.276 326.768 225.19 326.024C220.01 325.436 214.825 324.89 209.641 324.38C198.627 321.128 190.785 314.206 186.114 303.622C184.041 298.442 182.541 293.099 181.613 287.591C177.645 272.69 170.075 260.017 158.904 249.569C154.275 245.392 148.956 242.379 142.947 240.525C131.723 237.669 122.039 240.34 113.896 248.541C111.547 251.106 109.433 253.843 107.553 256.762C103.655 264.046 99.9727 271.445 96.5058 278.959C93.8086 284.664 89.376 288.158 83.2078 289.44C68.823 287.788 59.6167 293.884 55.5888 307.732C53.5769 316.467 51.6678 325.235 49.8605 334.039C22.0553 301.028 6.77979 262.8 4.03344 219.356C3.82885 212.097 3.76052 204.834 3.82885 197.571C6.12389 197.612 8.30599 197.131 10.3756 196.132C16.9914 192.638 23.8107 189.625 30.8341 187.089C35.4712 184.759 40.1087 182.43 44.7458 180.101C50.0098 176.703 55.0565 173.004 59.8851 169.003C66.2146 162.106 69.6925 153.953 70.3189 144.545C70.4806 139.743 70.7531 134.947 71.1373 130.158C72.2314 124.055 74.891 118.78 79.1161 114.333C87.9812 107.486 96.2329 99.8811 103.871 91.5195C109.98 81.6169 111.89 70.9296 109.599 59.4576C108.488 56.1527 106.714 53.2754 104.28 50.8255C102.326 47.4487 100.826 43.8861 99.7792 40.1382C99.5062 38.6308 99.5062 37.1239 99.7792 35.6166C129.132 17.0412 161.115 6.49078 195.729 3.9657Z" fill="#93D8FE"/>
<path fill-rule="evenodd" clip-rule="evenodd" d="M268.564 288.824C269.145 287.998 269.419 287.036 269.382 285.947C270.418 281.347 270.892 276.686 270.814 271.971C270.082 268.44 268.58 265.292 266.314 262.517C264.656 260.717 263.159 258.797 261.813 256.762C257.009 252.759 252.778 248.237 249.128 243.198C242.786 237.373 236.444 231.553 230.102 225.728C226.951 222.703 223.952 219.55 221.1 216.274C218.919 214.63 216.734 212.985 214.554 211.341C210.802 207.025 206.779 202.985 202.483 199.215C198.349 194.065 194.939 188.446 192.254 182.362C191.981 180.992 191.708 179.622 191.436 178.252C191.16 165.9 190.546 153.568 189.594 141.257C189.793 134.018 191.225 127.03 193.891 120.293C197.091 115.568 201.526 113.308 207.189 113.511C214.034 114.716 220.716 116.498 227.238 118.855C234.595 123.217 241.211 122.189 247.083 115.772C249.697 110.227 251.743 104.472 253.22 98.5077C254.566 94.9998 256.064 91.5745 257.721 88.2315C265.7 82.6823 273.679 77.1331 281.657 71.5839C286.878 66.537 289.743 60.3713 290.25 53.0866C289.141 41.5714 286.956 30.2675 283.703 19.1749C324.42 36.5188 355.586 64.6076 377.199 103.44C389.216 125.901 396.651 149.81 399.498 175.169C398.034 179.442 396.331 183.62 394.384 187.706C392.407 190.308 390.636 193.045 389.065 195.927C381.867 203.823 373.205 206.355 363.082 203.531C361.908 202.487 360.885 201.324 360.013 200.037C358.676 196.691 357.583 193.263 356.74 189.761C353.749 183.153 348.634 180.07 341.396 180.512C339.825 181.369 338.327 182.328 336.895 183.39C329.268 191.154 325.381 200.539 325.234 211.547C324.919 218.407 325.058 225.259 325.643 232.099C326.65 237.295 327.607 242.503 328.507 247.719C329.125 261.272 326.805 274.29 321.552 286.769C319.747 290.259 317.836 293.687 315.823 297.045C313.164 299.993 310.504 302.936 307.844 305.883C301.044 310.992 293.474 314.351 285.135 315.954C275.917 315.053 270.053 310.121 267.541 301.156C267.111 296.963 267.455 292.853 268.564 288.824Z" fill="#AFFB93"/>
<path fill-rule="evenodd" clip-rule="evenodd" d="M195.731 3.96704C224.827 2.44245 252.92 6.96401 280.02 17.5317C283.08 28.1833 285.331 39.0075 286.771 50.0047C287.254 56.7719 285.278 62.7321 280.838 67.8854C273.211 73.6365 265.298 78.9801 257.106 83.9164C255.195 85.7029 253.763 87.8268 252.81 90.2877C250.956 94.6987 249.455 99.2203 248.309 103.852C247.049 107.516 245.547 111.078 243.808 114.54C241.19 116.697 238.19 118.068 234.807 118.65C230.829 116.541 226.672 114.828 222.327 113.512C216.75 112.214 211.161 111.049 205.551 110.018C198.651 110.71 193.536 114.135 190.207 120.294C187.873 126.935 186.577 133.786 186.32 140.847C187.243 153.298 187.857 165.767 188.161 178.253C188.448 180.776 188.994 183.242 189.798 185.652C192.457 190.448 195.321 195.106 198.39 199.627C202.834 203.956 207.13 208.407 211.279 212.986C216.549 216.497 221.189 220.747 225.191 225.729C232.487 232.511 239.786 239.294 247.082 246.076C250.731 251.115 254.962 255.637 259.766 259.641C261.812 262.382 263.858 265.12 265.903 267.862C266.894 269.954 267.507 272.145 267.745 274.438C266.91 280.662 265.752 286.828 264.267 292.936C262.646 304.137 266.808 312.288 276.746 317.393C282.467 319.86 288.195 319.86 293.932 317.393C299.975 314.976 305.564 311.824 310.708 307.939C318.232 300.569 323.756 291.867 327.279 281.837C329.501 273.592 331.137 265.231 332.189 256.763C332.434 253.463 332.295 250.174 331.78 246.898C330.36 240.235 329.267 233.518 328.506 226.757C327.414 216.497 328.506 206.492 331.78 196.75C334.087 192.105 337.156 188.06 340.986 184.624C347.242 183.417 351.539 185.815 353.875 191.817C356.952 207.856 366.023 212.584 381.085 205.999C385.557 203.968 389.309 201.025 392.337 197.161C395.14 192.898 397.73 188.512 400.111 184.007C402.145 248.875 379.71 303.339 332.803 347.4C307.86 369.798 279.083 385.348 246.468 394.054C231.664 389.253 225.322 379.113 227.441 363.637C228.497 361.104 229.86 358.774 231.533 356.649C234.942 353.225 238.354 349.796 241.762 346.372C245.944 340.457 245.191 335.319 239.512 330.958C235.048 328.414 230.277 326.769 225.191 326.025C220.011 325.438 214.827 324.891 209.643 324.381C198.629 321.13 190.786 314.208 186.115 303.623C184.042 298.444 182.542 293.1 181.614 287.592C177.646 272.692 170.076 260.019 158.906 249.57C154.277 245.394 148.957 242.381 142.948 240.527C131.724 237.67 122.04 240.342 113.897 248.542C111.548 251.107 109.434 253.845 107.555 256.763C103.657 264.047 99.974 271.446 96.5071 278.96C93.8099 284.665 89.3774 288.159 83.2091 289.442C68.8244 287.789 59.618 293.885 55.5902 307.734C53.5783 316.468 51.6691 325.236 49.8618 334.041C22.0567 301.029 6.78113 262.802 4.03478 219.358C3.8302 212.099 3.76186 204.835 3.8302 197.572C6.12523 197.613 8.30733 197.132 10.3769 196.133C16.9928 192.639 23.812 189.626 30.8354 187.09C35.4725 184.761 40.1101 182.432 44.7472 180.102C50.0111 176.705 55.0578 173.005 59.8865 169.004C66.2159 162.107 69.6938 153.955 70.3203 144.546C70.4819 139.744 70.7544 134.949 71.1386 130.16C72.2327 124.056 74.8923 118.781 79.1174 114.334C87.9825 107.487 96.2342 99.8825 103.872 91.5209C109.982 81.6182 111.891 70.9309 109.601 59.4589C108.489 56.1541 106.716 53.2767 104.281 50.8268C102.328 47.45 100.827 43.8875 99.7805 40.1395C99.5076 38.6322 99.5076 37.1253 99.7805 35.618C129.134 17.0426 161.117 6.49212 195.731 3.96704Z" fill="#93D8FE"/>
<path fill-rule="evenodd" clip-rule="evenodd" d="M268.564 288.822C269.145 287.995 269.419 287.034 269.382 285.944C270.418 281.345 270.892 276.683 270.814 271.968C270.082 268.438 268.58 265.289 266.314 262.514C264.656 260.714 263.159 258.794 261.813 256.76C257.009 252.756 252.778 248.234 249.128 243.195C242.786 237.37 236.444 231.55 230.102 225.725C226.951 222.7 223.952 219.547 221.1 216.271C218.919 214.627 216.734 212.983 214.554 211.339C210.802 207.022 206.779 202.982 202.483 199.213C198.349 194.062 194.939 188.443 192.254 182.359C191.981 180.989 191.708 179.619 191.436 178.249C191.16 165.897 190.546 153.566 189.594 141.254C189.793 134.015 191.225 127.027 193.891 120.291C197.091 115.566 201.526 113.305 207.189 113.508C214.034 114.714 220.716 116.495 227.238 118.852C234.595 123.214 241.211 122.187 247.083 115.769C249.697 110.224 251.743 104.469 253.22 98.5051C254.566 94.9971 256.064 91.5719 257.721 88.2288C265.7 82.6796 273.679 77.1304 281.657 71.5812C286.878 66.5343 289.743 60.3686 290.25 53.0839C289.141 41.5688 286.956 30.2649 283.703 19.1722C324.42 36.5161 355.586 64.6049 377.199 103.438C389.216 125.898 396.651 149.807 399.498 175.166C398.034 179.439 396.331 183.618 394.384 187.703C392.407 190.305 390.636 193.043 389.065 195.924C381.867 203.82 373.205 206.352 363.082 203.529C361.908 202.484 360.885 201.321 360.013 200.035C358.676 196.689 357.583 193.26 356.74 189.758C353.749 183.151 348.634 180.068 341.396 180.51C339.825 181.366 338.327 182.325 336.895 183.387C329.268 191.152 325.381 200.536 325.234 211.544C324.919 218.404 325.058 225.257 325.643 232.097C326.65 237.292 327.607 242.5 328.507 247.717C329.125 261.269 326.805 274.287 321.552 286.766C319.747 290.256 317.836 293.684 315.823 297.043C313.164 299.99 310.504 302.933 307.844 305.88C301.044 310.99 293.474 314.348 285.135 315.951C275.917 315.051 270.053 310.118 267.541 301.153C267.111 296.96 267.455 292.85 268.564 288.822Z" fill="#AFFB93"/>
<path fill-rule="evenodd" clip-rule="evenodd" d="M5.05574 186.059C5.59011 183.956 5.86303 181.764 5.87408 179.483C15.3255 122.305 43.149 76.6093 89.3447 42.3971C91.5825 41.0394 93.7646 39.6007 95.8914 38.0811C97.3514 45.6719 100.557 52.3856 105.507 58.2225C108.627 69.0952 107.263 79.3715 101.415 89.0513C94.7114 96.7676 87.278 103.687 79.1155 109.809C73.0917 114.993 69.3408 121.501 67.8633 129.334C67.4656 135.501 67.0564 141.667 66.6358 147.832C65.5556 154.522 62.8281 160.413 58.4524 165.507C53.9315 169.387 49.226 173.018 44.336 176.4C35.7967 181.223 26.9312 185.333 17.74 188.731C15.0841 189.997 12.4924 191.366 9.96578 192.842C8.10937 193.668 6.19978 194.284 4.2374 194.691C4.21694 191.765 4.48945 188.887 5.05574 186.059Z" fill="#AFFA93"/>
<path fill-rule="evenodd" clip-rule="evenodd" d="M5.88058 179.484C5.86953 181.766 5.59662 183.958 5.06224 186.061C5.0115 183.772 5.28442 181.58 5.88058 179.484Z" fill="#7CB168"/>
<path fill-rule="evenodd" clip-rule="evenodd" d="M240.336 336.912C240.524 338.137 240.663 339.37 240.745 340.612C240.585 341.302 240.381 341.989 240.131 342.667C239.178 343.9 238.22 345.133 237.267 346.366C233.433 349.532 230.025 353.095 227.038 357.054C222.713 364.079 222.029 371.478 224.992 379.251C228.138 386.522 233.253 391.936 240.336 395.487C183.658 407.856 131.421 397.715 83.6236 365.069C72.6039 357.292 62.5792 348.315 53.5497 338.145C53.2767 335.955 53.2767 333.76 53.5497 331.569C54.9138 325.263 56.2776 318.962 57.6414 312.66C58.9601 307.444 61.1426 302.651 64.1881 298.274C66.3865 295.902 69.0461 294.327 72.1669 293.546C76.2524 293.181 80.3441 292.909 84.442 292.724C87.9612 291.984 91.0979 290.476 93.8529 288.203C96.2838 285.486 98.3979 282.543 100.195 279.365C102.65 274.157 105.105 268.953 107.56 263.745C110.374 257.769 114.261 252.63 119.221 248.331C128.783 241.528 138.74 240.981 149.091 246.687C161.382 254.653 170.043 265.546 175.073 279.365C178.006 288.071 180.734 296.843 183.256 305.672C191.602 322.373 205.172 330.253 223.969 329.308C229.182 329.76 233.957 331.404 238.29 334.24C239.219 334.964 239.898 335.852 240.336 336.912Z" fill="#AFFB93"/>
<path fill-rule="evenodd" clip-rule="evenodd" d="M269.385 285.948C269.422 287.037 269.148 287.999 268.567 288.825C268.53 287.736 268.804 286.774 269.385 285.948Z" fill="#72A460"/>
<path fill-rule="evenodd" clip-rule="evenodd" d="M240.326 336.913C241.136 338.092 241.271 339.326 240.735 340.612C240.653 339.371 240.514 338.138 240.326 336.913Z" fill="#71A15E"/>
</svg>

<svg width="404" height="404" fill="none" xmlns="http://www.w3.org/2000/svg"><path opacity=".933" fill-rule="evenodd" clip-rule="evenodd" d="M195.733.264c55.536-2.62 104.088 14.3 145.664 50.764 41.109 39.251 61.977 87.55 62.603 144.896-1.453 65.591-26.956 119.369-76.515 161.337-49.841 39.272-106.171 53.794-168.987 43.572-52.375-10.482-93.906-37.406-124.592-80.772-30.403-46.695-40.36-97.526-29.87-152.5 13.24-59.571 45.497-105.403 96.769-137.496C130.139 12.637 161.781 2.704 195.733.264Z" fill="#040505"/><path fill-rule="evenodd" clip-rule="evenodd" d="M195.729 3.966c29.097-1.525 57.19 2.997 84.289 13.564a221.682 221.682 0 0 1 6.752 32.473c.483 6.767-1.494 12.728-5.933 17.881a275.966 275.966 0 0 1-23.732 16.031 17.022 17.022 0 0 0-4.296 6.371 91.83 91.83 0 0 0-4.501 13.565 86.322 86.322 0 0 1-4.501 10.687c-2.619 2.158-5.618 3.528-9.002 4.111a69.652 69.652 0 0 0-12.48-5.138 363.745 363.745 0 0 0-16.775-3.494c-6.901.692-12.015 4.117-15.344 10.276a69.229 69.229 0 0 0-3.887 20.553 755.411 755.411 0 0 1 1.841 37.405c.287 2.524.832 4.99 1.637 7.399a181.964 181.964 0 0 0 8.592 13.976c4.444 4.328 8.74 8.78 12.889 13.359a61.459 61.459 0 0 1 13.912 12.743c7.295 6.782 14.595 13.564 21.89 20.347a74.437 74.437 0 0 0 12.685 13.564c2.045 2.742 4.091 5.48 6.137 8.221a20.098 20.098 0 0 1 1.841 6.577 178.484 178.484 0 0 1-3.478 18.497c-1.62 11.202 2.541 19.353 12.48 24.458 5.72 2.466 11.449 2.466 17.185 0a72.17 72.17 0 0 0 16.776-9.454c7.525-7.37 13.049-16.072 16.572-26.102a183.103 183.103 0 0 0 4.91-25.074 42.822 42.822 0 0 0-.41-9.865 208.74 208.74 0 0 1-3.273-20.142c-1.092-10.26 0-20.265 3.273-30.006 2.308-4.645 5.377-8.69 9.207-12.126 6.256-1.208 10.552 1.19 12.889 7.193 3.077 16.039 12.148 20.766 27.209 14.181 4.473-2.03 8.225-4.974 11.253-8.837a160.645 160.645 0 0 0 7.774-13.154c2.033 64.868-20.401 119.332-67.309 163.393-24.943 22.398-53.72 37.948-86.334 46.654-14.804-4.801-21.146-14.942-19.027-30.418a29.719 29.719 0 0 1 4.092-6.988l10.229-10.276c4.182-5.915 3.429-11.053-2.25-15.414a40.494 40.494 0 0 0-14.321-4.933c-5.18-.588-10.365-1.134-15.549-1.644-11.014-3.252-18.856-10.174-23.527-20.758a77.817 77.817 0 0 1-4.501-16.031c-3.968-14.901-11.538-27.574-22.709-38.022-4.629-4.177-9.948-7.19-15.957-9.044-11.224-2.856-20.908-.185-29.051 8.016a61.277 61.277 0 0 0-6.343 8.221 419.638 419.638 0 0 0-11.047 22.197c-2.697 5.705-7.13 9.199-13.298 10.481-14.385-1.652-23.591 4.444-27.62 18.292a1125.987 1125.987 0 0 0-5.727 26.307C22.055 301.028 6.78 262.8 4.032 219.356a579.688 579.688 0 0 1-.204-21.785c2.295.041 4.477-.44 6.547-1.439a160.401 160.401 0 0 1 20.458-9.043l13.912-6.988a158.063 158.063 0 0 0 15.14-11.098c6.329-6.897 9.806-15.05 10.433-24.458.162-4.802.434-9.598.818-14.387 1.094-6.103 3.754-11.378 7.98-15.825a194.553 194.553 0 0 0 24.754-22.814c6.109-9.902 8.019-20.59 5.728-32.061a22.055 22.055 0 0 0-5.319-8.633 45.918 45.918 0 0 1-4.5-10.687 12.584 12.584 0 0 1 0-4.521C129.131 17.04 161.114 6.49 195.728 3.966Z" fill="#93D8FE"/><path fill-rule="evenodd" clip-rule="evenodd" d="M268.564 288.824c.581-.826.855-1.788.818-2.877a58.958 58.958 0 0 0 1.432-13.976 21.69 21.69 0 0 0-4.5-9.454 45.634 45.634 0 0 1-4.501-5.755 74.437 74.437 0 0 1-12.685-13.564c-6.342-5.825-12.684-11.645-19.026-17.47a145.867 145.867 0 0 1-9.002-9.454l-6.546-4.933a126.754 126.754 0 0 0-12.071-12.126 75.5 75.5 0 0 1-10.229-16.853l-.818-4.11a675.466 675.466 0 0 0-1.842-36.995 61.107 61.107 0 0 1 4.297-20.964c3.2-4.725 7.635-6.985 13.298-6.782a120.18 120.18 0 0 1 20.049 5.344c7.357 4.362 13.973 3.334 19.845-3.083a92.577 92.577 0 0 0 6.137-17.264 119.58 119.58 0 0 1 4.501-10.276l23.936-16.648c5.221-5.047 8.086-11.213 8.593-18.497a182.368 182.368 0 0 0-6.547-33.912c40.717 17.344 71.883 45.433 93.496 84.265 12.017 22.461 19.452 46.37 22.299 71.729a118.103 118.103 0 0 1-5.114 12.537 64.92 64.92 0 0 0-5.319 8.221c-7.198 7.896-15.86 10.428-25.983 7.604a18.688 18.688 0 0 1-3.069-3.494 74.935 74.935 0 0 1-3.273-10.276c-2.991-6.608-8.106-9.691-15.344-9.249a38.472 38.472 0 0 0-4.501 2.878c-7.627 7.764-11.514 17.149-11.661 28.157-.315 6.86-.176 13.712.409 20.552a772.28 772.28 0 0 1 2.864 15.62c.618 13.553-1.702 26.571-6.955 39.05a187.641 187.641 0 0 1-5.729 10.276c-2.659 2.948-5.319 5.891-7.979 8.838-6.8 5.109-14.37 8.468-22.709 10.071-9.218-.901-15.082-5.833-17.594-14.798a33.278 33.278 0 0 1 1.023-12.332Z" fill="#AFFB93"/><path fill-rule="evenodd" clip-rule="evenodd" d="M195.731 3.967c29.096-1.525 57.189 2.997 84.289 13.565a221.684 221.684 0 0 1 6.751 32.473c.483 6.767-1.493 12.727-5.933 17.88a275.943 275.943 0 0 1-23.732 16.031 17.023 17.023 0 0 0-4.296 6.372 91.96 91.96 0 0 0-4.501 13.564 86.335 86.335 0 0 1-4.501 10.688c-2.618 2.157-5.618 3.528-9.001 4.11a69.712 69.712 0 0 0-12.48-5.138 365.114 365.114 0 0 0-16.776-3.494c-6.9.692-12.015 4.117-15.344 10.276a69.229 69.229 0 0 0-3.887 20.553 754.235 754.235 0 0 1 1.841 37.406 36.27 36.27 0 0 0 1.637 7.399 181.945 181.945 0 0 0 8.592 13.975c4.444 4.329 8.74 8.78 12.889 13.359a61.482 61.482 0 0 1 13.912 12.743l21.891 20.347a74.435 74.435 0 0 0 12.684 13.565c2.046 2.741 4.092 5.479 6.137 8.221a20.094 20.094 0 0 1 1.842 6.576 178.984 178.984 0 0 1-3.478 18.498c-1.621 11.201 2.541 19.352 12.479 24.457 5.721 2.467 11.449 2.467 17.186 0a72.174 72.174 0 0 0 16.776-9.454c7.524-7.37 13.048-16.072 16.571-26.102a182.924 182.924 0 0 0 4.91-25.074 42.88 42.88 0 0 0-.409-9.865 208.465 208.465 0 0 1-3.274-20.141c-1.092-10.26 0-20.265 3.274-30.007 2.307-4.645 5.376-8.69 9.206-12.126 6.256-1.207 10.553 1.191 12.889 7.193 3.077 16.039 12.148 20.767 27.21 14.182 4.472-2.031 8.224-4.974 11.252-8.838a160.077 160.077 0 0 0 7.774-13.154c2.034 64.868-20.401 119.332-67.308 163.393-24.943 22.398-53.72 37.948-86.335 46.654-14.804-4.801-21.146-14.941-19.027-30.417a29.733 29.733 0 0 1 4.092-6.988l10.229-10.277c4.182-5.915 3.429-11.053-2.25-15.414a40.513 40.513 0 0 0-14.321-4.933c-5.18-.587-10.364-1.134-15.548-1.644-11.014-3.251-18.857-10.173-23.528-20.758a77.8 77.8 0 0 1-4.501-16.031c-3.968-14.9-11.538-27.573-22.708-38.022-4.629-4.176-9.949-7.189-15.958-9.043-11.224-2.857-20.908-.185-29.051 8.015a61.25 61.25 0 0 0-6.342 8.221 419.648 419.648 0 0 0-11.048 22.197c-2.697 5.705-7.13 9.199-13.298 10.482-14.385-1.653-23.591 4.443-27.619 18.292a1123.76 1123.76 0 0 0-5.728 26.307c-27.805-33.012-43.08-71.239-45.827-114.683a579.742 579.742 0 0 1-.205-21.786c2.295.041 4.477-.44 6.547-1.439a160.407 160.407 0 0 1 20.458-9.043l13.912-6.988a157.917 157.917 0 0 0 15.14-11.098c6.329-6.897 9.807-15.049 10.433-24.458.162-4.802.434-9.597.819-14.386 1.094-6.104 3.753-11.379 7.978-15.826a194.527 194.527 0 0 0 24.755-22.813c6.11-9.903 8.019-20.59 5.729-32.062-1.112-3.305-2.885-6.182-5.32-8.632a45.946 45.946 0 0 1-4.5-10.688 12.588 12.588 0 0 1 0-4.521c29.353-18.575 61.336-29.126 95.95-31.651Z" fill="#93D8FE"/><path fill-rule="evenodd" clip-rule="evenodd" d="M268.564 288.822c.581-.827.855-1.788.818-2.878a58.953 58.953 0 0 0 1.432-13.976 21.696 21.696 0 0 0-4.5-9.454 45.696 45.696 0 0 1-4.501-5.754 74.476 74.476 0 0 1-12.685-13.565c-6.342-5.825-12.684-11.645-19.026-17.47a145.867 145.867 0 0 1-9.002-9.454c-2.181-1.644-4.366-3.288-6.546-4.932a126.523 126.523 0 0 0-12.071-12.126 75.528 75.528 0 0 1-10.229-16.854l-.818-4.11a675.515 675.515 0 0 0-1.842-36.995 61.096 61.096 0 0 1 4.297-20.963c3.2-4.725 7.635-6.986 13.298-6.783a120.277 120.277 0 0 1 20.049 5.344c7.357 4.362 13.973 3.335 19.845-3.083a92.583 92.583 0 0 0 6.137-17.264 119.581 119.581 0 0 1 4.501-10.276l23.936-16.648c5.221-5.047 8.086-11.212 8.593-18.497a182.371 182.371 0 0 0-6.547-33.912c40.717 17.344 71.883 45.433 93.496 84.266 12.017 22.46 19.452 46.369 22.299 71.728a118.017 118.017 0 0 1-5.114 12.537 64.992 64.992 0 0 0-5.319 8.221c-7.198 7.896-15.86 10.428-25.983 7.605a18.75 18.75 0 0 1-3.069-3.494 74.949 74.949 0 0 1-3.273-10.277c-2.991-6.607-8.106-9.69-15.344-9.248a38.335 38.335 0 0 0-4.501 2.877c-7.627 7.765-11.514 17.149-11.661 28.157-.315 6.86-.176 13.713.409 20.553a769.729 769.729 0 0 1 2.864 15.62c.618 13.552-1.702 26.57-6.955 39.049a188.042 188.042 0 0 1-5.729 10.277c-2.659 2.947-5.319 5.89-7.979 8.837-6.8 5.11-14.37 8.468-22.709 10.071-9.218-.9-15.082-5.833-17.594-14.798a33.27 33.27 0 0 1 1.023-12.331Z" fill="#AFFB93"/><path fill-rule="evenodd" clip-rule="evenodd" d="M5.056 186.059a27.14 27.14 0 0 0 .818-6.576c9.451-57.178 37.275-102.874 83.47-137.086a104.466 104.466 0 0 0 6.547-4.316c1.46 7.59 4.666 14.305 9.616 20.141 3.12 10.873 1.756 21.15-4.092 30.83a143.573 143.573 0 0 1-22.3 20.757c-6.023 5.184-9.774 11.692-11.252 19.525-.397 6.167-.807 12.333-1.227 18.498-1.08 6.69-3.808 12.581-8.184 17.675A171.114 171.114 0 0 1 44.336 176.4a183.104 183.104 0 0 1-26.596 12.331 104.809 104.809 0 0 0-7.774 4.111 28.084 28.084 0 0 1-5.729 1.849c-.02-2.926.252-5.804.819-8.632Z" fill="#AFFA93"/><path fill-rule="evenodd" clip-rule="evenodd" d="M5.88 179.484a27.14 27.14 0 0 1-.818 6.577c-.05-2.289.222-4.481.819-6.577Z" fill="#7CB168"/><path fill-rule="evenodd" clip-rule="evenodd" d="M240.336 336.912c.188 1.225.327 2.458.409 3.7-.16.69-.364 1.377-.614 2.055-.953 1.233-1.911 2.466-2.864 3.699a63.098 63.098 0 0 0-10.229 10.688c-4.325 7.025-5.009 14.424-2.046 22.197 3.146 7.271 8.261 12.685 15.344 16.236-56.678 12.369-108.915 2.228-156.712-30.418-11.02-7.777-21.045-16.754-30.074-26.924a26.503 26.503 0 0 1 0-6.576l4.091-18.909a43.748 43.748 0 0 1 6.547-14.386c2.198-2.372 4.858-3.947 7.979-4.728 4.085-.365 8.177-.637 12.275-.822 3.52-.74 6.656-2.248 9.41-4.521a50.477 50.477 0 0 0 6.343-8.838l7.365-15.62c2.814-5.976 6.701-11.115 11.661-15.414 9.562-6.803 19.519-7.35 29.87-1.644 12.291 7.966 20.952 18.859 25.982 32.678a589.86 589.86 0 0 1 8.183 26.307c8.346 16.701 21.916 24.581 40.713 23.636 5.213.452 9.988 2.096 14.321 4.932a6.465 6.465 0 0 1 2.046 2.672Z" fill="#AFFB93"/><path fill-rule="evenodd" clip-rule="evenodd" d="M269.385 285.948c.037 1.089-.237 2.051-.818 2.877-.037-1.089.237-2.051.818-2.877Z" fill="#72A460"/><path fill-rule="evenodd" clip-rule="evenodd" d="M240.326 336.913c.81 1.179.945 2.413.409 3.699a43.12 43.12 0 0 0-.409-3.699Z" fill="#71A15E"/></svg>
